projects/flag-game/flags/Qatar.svg

<svg viewBox="0 0 1000 393" xmlns="http://www.w3.org/2000/svg"><g fill-rule="evenodd"><path d="m0 0h999.347656v393.441406h-999.347656zm0 0" fill="#8d1b3d"/><path d="m0 0v393.441406h314.753906l79.957032-21.839844-79.957032-21.890624 79.957032-21.84375-79.957032-21.839844 79.957032-21.890625-79.957032-21.839844 79.957032-21.84375-79.957032-21.890625 79.957032-21.839844-79.957032-21.84375 79.957032-21.890625-79.957032-21.839843 79.957032-21.84375-79.957032-21.886719 79.957032-21.84375-79.957032-21.84375 79.957032-21.886719-79.957032-21.84375zm0 0" fill="#fff"/></g></svg>

<?xml version="1.0" encoding="UTF-8"?>
<svg xmlns="http://www.w3.org/2000/svg" xmlns:xlink="http://www.w3.org/1999/xlink" viewBox="0 0 1000 393" version="1.1">
<g id="surface960">
<path style=" stroke:none;fill-rule:evenodd;fill:rgb(55.293274%,10.588074%,23.921204%);fill-opacity:1;" d="M 0 0 L 999.347656 0 L 999.347656 393.441406 L 0 393.441406 Z M 0 0 "/>
<path style=" stroke:none;fill-rule:evenodd;fill:rgb(99.998474%,99.998474%,99.998474%);fill-opacity:1;" d="M 0 0 L 0 393.441406 L 314.753906 393.441406 L 394.710938 371.601562 L 314.753906 349.710938 L 394.710938 327.867188 L 314.753906 306.027344 L 394.710938 284.136719 L 314.753906 262.296875 L 394.710938 240.453125 L 314.753906 218.5625 L 394.710938 196.722656 L 314.753906 174.878906 L 394.710938 152.988281 L 314.753906 131.148438 L 394.710938 109.304688 L 314.753906 87.417969 L 394.710938 65.574219 L 314.753906 43.730469 L 394.710938 21.84375 L 314.753906 0 Z M 0 0 "/>
</g>
</svg>
